src/svg/flash-outline.svg

<svg version="1.2" baseProfile="tiny" xmlns="http://www.w3.org/2000/svg" width="24" height="24" viewBox="0 0 24 24"><path d="M14.5 4h.005m-.005 0l-2.5 6 5 2.898-7.5 7.102 2.5-6-5-2.9 7.5-7.1m0-2c-.562.012-1.029.219-1.379.551l-7.497 7.095c-.458.435-.685 1.059-.61 1.686.072.626.437 1.182.982 1.498l3.482 2.021-1.826 4.381c-.362.871-.066 1.879.712 2.416.344.236.739.354 1.135.354.498 0 .993-.186 1.375-.548l7.5-7.103c.458-.434.685-1.058.61-1.685-.073-.627-.438-1.183-.982-1.498l-3.482-2.018 1.789-4.293c.123-.26.192-.551.192-.857 0-1.102-.89-1.996-2.001-2z"/></svg>

<?xml version="1.0" encoding="iso-8859-1"?>
<!-- Generator: Adobe Illustrator 16.2.1, SVG Export Plug-In . SVG Version: 6.00 Build 0)  -->
<svg version="1.2" baseProfile="tiny" id="Layer_1" xmlns="http://www.w3.org/2000/svg" xmlns:xlink="http://www.w3.org/1999/xlink"
	 x="0px" y="0px" width="24px" height="24px" viewBox="0 0 24 24" xml:space="preserve">
<g>
	<path d="M14.5,4h0.005 M14.5,4L12,10l5,2.898L9.5,20l2.5-6l-5-2.9L14.5,4 M14.5,2c-0.562,0.012-1.029,0.219-1.379,0.551
		L5.624,9.646c-0.458,0.435-0.685,1.059-0.61,1.686c0.072,0.626,0.437,1.182,0.982,1.498l3.482,2.021l-1.826,4.381
		c-0.362,0.871-0.066,1.879,0.712,2.416c0.344,0.236,0.739,0.354,1.135,0.354c0.498,0,0.993-0.186,1.375-0.548l7.5-7.103
		c0.458-0.434,0.685-1.058,0.61-1.685c-0.073-0.627-0.438-1.183-0.982-1.498L14.52,9.15l1.789-4.293
		c0.123-0.26,0.192-0.551,0.192-0.857C16.501,2.898,15.611,2.004,14.5,2z"/>
</g>
</svg>
